X:184
T:The Irish Washerwoman
M:6/8
L:1/8
K:G
d/c/ | "G"BGG DGG | "Em"BGB "G"dcB | "Am"cAA EAA | "D"cAc "D7"edc | 
"G"BGG DGG | "Em"BGB "G"dcB |"D7"cBc Adc | "G"BGG G2 :: 
g/a/ | "G"bgg dgg | gbg bag | "D"aff dff | afa agf | 
"C"egg "G"dgg | "Am"cgg "G"Bgg | "C"cBc "D7"Adc | "G"BGG G2 :|]

%%newpage

